demo/img/redNumbers/8.svg

<?xml version="1.0" encoding="UTF-8"?>
<svg width="151px" height="163px" viewBox="0 0 151 163" version="1.1" xmlns="http://www.w3.org/2000/svg" xmlns:xlink="http://www.w3.org/1999/xlink">
    <!-- Generator: Sketch 52.6 (67491) - http://www.bohemiancoding.com/sketch -->
    <title>8</title>
    <desc>Created with Sketch.</desc>
    <g id="-" stroke="none" stroke-width="1" fill="none" fill-rule="evenodd" fill-opacity="0">
        <path d="M119.35475,75.7280794 C129.458134,79.3364308 137.107724,84.279798 142.30375,90.5583294 C147.499776,96.8368608 150.09775,104.378202 150.09775,113.182579 C150.09775,122.708627 147.211112,131.188126 141.43775,138.621329 C135.664388,146.054533 127.148806,151.863892 115.89075,156.049579 C104.632694,160.235267 91.137662,162.328079 75.40525,162.328079 C59.672838,162.328079 46.1778063,160.235267 34.91975,156.049579 C23.6616937,151.863892 15.1461122,146.054533 9.37275,138.621329 C3.5993878,131.188126 0.71275,122.708627 0.71275,113.182579 C0.71275,104.378202 3.31072402,96.8368608 8.50675,90.5583294 C13.702776,84.279798 21.3523662,79.3364308 31.45575,75.7280794 C14.7129996,69.377381 6.34175,58.4803233 6.34175,43.0365794 C6.34175,34.6652042 9.15622186,27.3042778 14.78525,20.9535794 C20.4142781,14.602881 28.424698,9.65951374 38.81675,6.1233294 C49.208802,2.58714505 61.4048467,0.819079395 75.40525,0.819079395 C89.4056533,0.819079395 101.601698,2.58714505 111.99375,6.1233294 C122.385802,9.65951374 130.396222,14.602881 136.02525,20.9535794 C141.654278,27.3042778 144.46875,34.6652042 144.46875,43.0365794 C144.46875,58.4803233 136.0975,69.377381 119.35475,75.7280794 Z M27.99175,45.8510794 C27.99175,52.4904459 32.3217067,57.9389748 40.98175,62.1968294 C49.6417933,66.454684 61.1161786,68.5835794 75.40525,68.5835794 C89.6943214,68.5835794 101.168707,66.454684 109.82875,62.1968294 C118.488793,57.9389748 122.81875,52.4904459 122.81875,45.8510794 L122.81875,44.1190794 C122.81875,36.3250404 118.81354,30.0466032 110.803,25.2835794 C102.79246,20.5205556 90.9933279,18.1390794 75.40525,18.1390794 C59.8171721,18.1390794 48.0180401,20.5205556 40.0075,25.2835794 C31.9969599,30.0466032 27.99175,36.3250404 27.99175,44.1190794 L27.99175,45.8510794 Z M128.44775,112.100079 C128.44775,103.58437 124.009544,96.8368543 115.133,91.8573294 C106.256456,86.8778045 93.0140047,84.3880794 75.40525,84.3880794 C57.7964953,84.3880794 44.5540444,86.8778045 35.6775,91.8573294 C26.8009556,96.8368543 22.36275,103.58437 22.36275,112.100079 L22.36275,114.265079 C22.36275,120.182776 24.5277283,125.486973 28.85775,130.177829 C33.1877717,134.868686 39.3579599,138.513066 47.3685,141.111079 C55.3790401,143.709092 64.7245299,145.008079 75.40525,145.008079 C86.0859701,145.008079 95.4314599,143.709092 103.442,141.111079 C111.45254,138.513066 117.622728,134.868686 121.95275,130.177829 C126.282772,125.486973 128.44775,120.182776 128.44775,114.265079 L128.44775,112.100079 Z" id="8" stroke="#870000" stroke-width="0.3" fill="#171717"></path>
    </g>
</svg>

<?xml version="1.0" encoding="utf-8"?>
<!-- Generator: Adobe Illustrator 16.0.0, SVG Export Plug-In . SVG Version: 6.00 Build 0)  -->
<!DOCTYPE svg PUBLIC "-//W3C//DTD SVG 1.1//EN" "http://www.w3.org/Graphics/SVG/1.1/DTD/svg11.dtd">
<svg version="1.1" id="Capa_1" xmlns="http://www.w3.org/2000/svg" xmlns:xlink="http://www.w3.org/1999/xlink" x="0px" y="0px"
	 width="151px" height="163px" viewBox="0 0 151 163" enable-background="new 0 0 151 163" xml:space="preserve">
<title>8</title>
<desc>Created with Sketch.</desc>
<g id="_x2D_">
	<path id="_x38_" fill="none" stroke="#1E7498" stroke-width="0.3" d="M119.355,75.728c10.103,3.608,17.752,8.551,22.948,14.831
		c5.196,6.278,7.794,13.82,7.794,22.624c0,9.526-2.887,18.005-8.66,25.438s-14.289,13.242-25.547,17.429
		c-11.258,4.186-24.753,6.278-40.485,6.278s-29.228-2.093-40.485-6.278c-11.258-4.187-19.774-9.995-25.547-17.429
		c-5.773-7.434-8.66-15.912-8.66-25.438c0-8.804,2.598-16.346,7.794-22.624c5.196-6.279,12.846-11.222,22.949-14.831
		C14.713,69.377,6.342,58.48,6.342,43.037c0-8.372,2.814-15.732,8.443-22.083S28.425,9.66,38.817,6.124
		c10.392-3.537,22.588-5.304,36.588-5.304c14.001,0,26.196,1.768,36.589,5.304c10.392,3.536,18.402,8.479,24.031,14.83
		s8.443,13.711,8.443,22.083C144.469,58.48,136.098,69.377,119.355,75.728z M27.992,45.851c0,6.639,4.33,12.088,12.99,16.346
		c8.66,4.258,20.134,6.387,34.423,6.387s25.764-2.129,34.423-6.387c8.66-4.258,12.99-9.707,12.99-16.346v-1.732
		c0-7.794-4.005-14.073-12.016-18.835c-8.01-4.763-19.81-7.145-35.397-7.145s-27.387,2.381-35.398,7.145
		c-8.01,4.763-12.016,11.042-12.016,18.835V45.851z M128.447,112.1c0-8.516-4.438-15.263-13.314-20.242s-22.119-7.469-39.728-7.469
		c-17.609,0-30.851,2.489-39.728,7.469c-8.877,4.979-13.315,11.727-13.315,20.242v2.166c0,5.917,2.165,11.221,6.495,15.912
		s10.5,8.336,18.511,10.934c8.01,2.598,17.356,3.896,28.037,3.896s20.026-1.299,28.036-3.896
		c8.012-2.598,14.182-6.242,18.512-10.934s6.494-9.995,6.494-15.912V112.1z"/>
</g>
</svg>
